X:2
T:Rattvikspolska e. Boerjes Olle
R:polska J
N:from Bengt Jonsson 1992 trip
Z:Brian
M:3/4
L:1/8
K:G
|: (G>B) (BA) A>G | (G>c) (cB) B>A | Ad fa g>e |[1 ec d2 dB :|[2 ec d4 ||
|: d2 fa g>e | ec d2 d>B | G2 BA/G/ A>F | G2 (G/A/)G/D/ (C/B,/)(A,/G,/) | d2 fa g>e | ec d2 d>B | G2 BA/G/ A>F | G2 G4 :|
